X:1
T:Chas. H. Gabriel
T:Dr. M. Victor Staley
T:How Sweet to Trust in Jesus
%%score { ( 1 2 ) | ( 3 4 5 ) }
L:1/8
M:6/8
K:Ab
V:1 treble 
V:2 treble 
V:3 bass 
V:4 bass 
V:5 bass 
V:1
{/x} E | c2 B A2 E | F A2- A2 G/F/ | E2 A B2 c | B3- B2 E | c2 B A2 E | F A2- A2 A/B/ | c2 c B2 B | %8
w: How|sweet to trust in|Je\- sus, * In the|hour of bit\- ter|need; * *||* * * Where\- so\-|ev\- ver He may|
w: How|sweet to trust in|Je\- sus, * With our|ev\- v'ry doubt and|fear. * To|know that in the|Sa\- vior, * We have|still a help\- er|
w: How|sweet to trust in|Je\- sus, * In temp\-|ta\- tion's try\- ing|hour; * To|tell Him of our|weak\- ness * And to|feel His love and|
w: How|sweet to trust in|Je\- sus, * What\- so\-|ev\- er be our|care; * He|nev\- er will for\-|sake us, * In the|hour of deep de\-|
 A3- A2 |"^Chorus" c | e2 c e2 c | B A2- A2 A/A/ | d2 A d2 A | c3- c2 c | e2 c e2 c | %15
w: lead. *|How|sweet to trust in|Je\- sus; * Oh, what|joy it doth af\-|ford, * Con\-|fid- ing in His|
w: near. *|||||||
w: pow'r. *|||||||
w: spair. *|||||||
 B A2- A2 A/B/ | c c2 B2 B | A3- A2 |] %18
w: good- ness * Just re\-|ly\- ing on His|word. *|
w: |||
w: |||
w: |||
V:2
 C | E2 D C2 C | D F2- F2 E/D/ | C2 E E2 E | E3- E2 E | E2 D C2 C | D F2- F2 E/F/ | E2 E D2 D | %8
w: ||||* * To|walk in peace be\-|side Him, * * *||
 C3- C2 | E | A2 A A2 E | E E2- E2 _G/G/ | F2 F F2 =E | E3- E2 E | G2 A A2 E | D C2- C2 =D/D/ | %16
w: ||||||||
 E E2 D2 D | C3- C2 |] %18
w: ||
V:3
 z | z6 | z6 | z6 | z6 | z6 | z6 | z6 | z5 | z | z6 | z6 | z6 | z6 | z6 | z6 | A, A,2 G,2 G, | %17
 A,3- A,2 |] %18
V:4
 A, | A,2 E, E,2 A, | A, B,2- B,2 A,/A,/ | A,2 A, G,2 A, | G,3- G,2 G, | A,2 E, E,2 A, | %6
 A, B,2- B,2 A,/A,/ | A,2 A, G,2 G, | A,3- A,2 | A, | C2 E C2 E | D C2- C2 C/C/ | D2 D A,2 A, | %13
 A,3- A,2 A, | C2 E C2 A, | G, A,2- A,2 A,/A,/ | x6 | x5 |] %18
V:5
 A,, | A,,2 A,, A,,2 A,, | D, D,2- D,2 D,/D,/ | A,,2 C, B,,2 A,, | E,3- E,2 E, | %5
 A,,2 A,, A,,2 A,, | D, D,2- D,2 C,/D,/ | E,2 E, E,2 E, | A,,3- A,,2 | A, | A,2 A, A,2 A, | %11
 A, A,2- A,2 A,/A,/ | D,2 D, D,2 D, | A,,3- A,,2 A, | A,2 A, A,2 A, | E, F,2- F,2 =E,/E,/ | %16
 E, E,2 E,2 E, | A,,3- A,,2 |] %18

